!!!!SEGMENT: pl-kozmzk--mzk-m-159--052_walczynski-franciszek--praeludia-organi-op-5-allegro-moderato.krn
!!!cenid: 18xx:2795
!!!COM: Walczyński, Franciszek
!!!COM-rismID:
!!!CDT: ~1852-1937
!!!CNT: Polish
!!!GTL: Praeludia organi op. 5
!!!OTL: 52. Allegro moderato
!!!PDT: 1894
!!!AGN: Secular; Prelude
!!!SMS-siglum: PL-KOZmzk
!!!SMS-shelfmark: mzk/m/159
!!!SMS-shelfwork: 052 G
!!!SMS-variant:
!!!SMS-altvar:
!!!NIFC-rismSourceID: 1001118867
!!!NIFC-islandoraID: pl-kozmzk:2265
!!!URL-pdf-islandora: https://repozytorium.nifc.pl/islandora/object/pl-kozmzk%3A2265/datastream/PDF/view
!!!URL-scan: https://polish.musicsources.pl/pl/lokalizacje/galeria/druki-muzyczne/7406 @EN{Scan on Polish Music Herritage in Open Access Website} @PL{Skany w portalu Dziedzictwo Muzyki Polskiej w otwartym dostępie}
!!!ONB-nifc: UWAGA: numeracja plików zgodna z numeracją źrodłową
!!!OMD: 52. Allegro moderato.
!!!AIN: 1 empty 1 organ
!!!key:
**kern	**kern	**dynam
*part2	*part1	*part1
*staff2	*staff1	*
*Iorgan	*Iempty	*
*I"[Organo]	*	*
*clefF4	*clefG2	*
*k[b-e-a-d-g-c-]	*k[b-e-a-d-g-c-]	*
*e-:	*e-:	*
*M3/4	*M3/4	*
=1	=1	=1
*^	*^	*
!	!	!	!	!LO:DY:b=2
2.re	(4E-\	2.rg	2.r	f
.	4B-\	.	.	.
.	4A-\	.	.	.
=2	=2	=2	=2	=2
2.r	2G-\	2.rgg	(4e-\	f
.	.	.	4b-\	.
.	4F\)	.	4a-\	.
=3	=3	=3	=3	=3
(4E-/	2.E-\	2.rgg	2g-\	.
4e-/	.	.	.	.
4d-/	.	.	4gn\)	.
=4	=4	=4	=4	=4
!	!	!	!	!LO:DY:a
2c-/	2.E-\	(4a-/	4a-\	f
.	.	4ee-/	4e-\	.
4B-/)	.	4dd-/	8f\L	.
.	.	.	8gn\J	.
=5	=5	=5	=5	=5
(4A-/	4AA-\	2cc-/	2a-\	.
4e-/	4r	.	.	.
4d-/	4r	4b-/	4gn\	.
=6	=6	=6	=6	=6
2c-/	2.r	4b-/)	2.e-\	.
.	.	(4a-/	.	.
4B-/	.	4g-X/	.	.
=7	=7	=7	=7	=7
(2.An/)	2.r	8f/L	2.cn\	.
.	.	8g-/	.	.
.	.	8f/	.	.
.	.	8en/	.	.
.	.	8f/	.	.
.	.	8e-X/J)	.	.
!!LO:LB:g=original
=8	=8	=8	=8	=8
8B-/L	2.r	2.dn/	2.B-\	.
8c-X/	.	.	.	>
8B-/	.	.	.	.
8A-X/	.	.	.	.
8G-/	.	.	.	.
8F/J)	.	.	.	.
=9	=9	=9	=9	=9
!	!	!	!	!LO:DY:a
(4G-/	[2.E-\	(2e-/	2B-\	] p
4E-/	.	.	.	.
4A-/	.	4f/	4dn\	.
=10	=10	=10	=10	=10
4B-/	2E-\]	2g-/	([2.e-\	.
4G-/	.	.	.	.
4c-/)	4AA-\	4a-/)	.	.
=11	=11	=11	=11	=11
([2.B-/	[2.BB-\	[2.f/	4e-\]	>
.	.	.	4dn\	.
.	.	.	4cn\)	.
=12	=12	=12	=12	=12
4B-/]	2.BB-\]	2.f/]	2.dn\	.
4An/	.	.	.	.
4A-X/)	.	.	.	]
=13	=13	=13	=13	=13
!LO:TX:b:i:t=Ped.	!	!	!	!
([2.G-/	(4EE-\	[2.e-/	[2.B-\	pp <
.	4BB-\	.	.	.
.	4AA-\	.	.	[
=14	=14	=14	=14	=14
!	!	!LO:TX:a:i:t=rit.	!	!
2.G-/_	4GG-\	2.e-/_	2.B-\_	>
.	4AA-\	.	.	.
.	4FF\	.	.	.
=15	=15	=15	=15	=15
2.G-/])	2.EE-;\)	2.e-;/]	2.B-\]	]
*v	*v	*	*	*
*	*v	*v	*
==	==	==
*-	*-	*-
!!!system-decoration: {(s1,s2)}
!!!EED: Andrzej Borzym
!!!EEV: 2021-08-08
!!!ENC: Krzysztof Stępień
!!!END: 2021-07-26
